X: 18
T: Judy's Reel
M: 4/4
L: 1/8
C: Trad.
S: Arr. Chris Ricker
R: Reel
K: D
DE|FAAB AFED|FAAB Acde|fBBA Bcde|fBBA BcdA|!
FAAB AFED|FAAB Acde|fBBA BcdB|1AFEF D2:|2AFEF D3g||!
fgab afde|fdad bdad|efga bgef|(3gfe be gfeg|!
fgaf bfaf|defd efde|fBBA BcdB|1AFEF D2 g2:|2AFEF D2||!
